svgs/sharp-light/gifts.svg

<svg xmlns="http://www.w3.org/2000/svg" viewBox="0 0 640 512"><!--! Font Awesome Pro 6.6.0 by @fontawesome - https://fontawesome.com License - https://fontawesome.com/license (Commercial License) Copyright 2024 Fonticons, Inc. --><path d="M192.9 29.8l5.8-14.9L168.8 3.3l-5.8 14.9L144.5 66.4 127 18.5l-5.5-15L91.5 14.4l5.5 15 15.9 43.8L64.6 42.5 51.1 33.9l-17.2 27 13.5 8.6L89.1 96 32 96 0 96l0 32L0 480l0 32 32 0 160 0 0-32L32 480l0-352 224 0 0 16.6c8.2-12.9 19.1-23.9 32-32.2L288 96l-32 0-57.1 0 41.6-26.5 13.5-8.6-17.2-27-13.5 8.6L176.5 72.4l16.5-42.6zM361.8 172.6L401.4 224l-9.4 0-56 0c-17.7 0-32-14.3-32-32c0-17.6 14.4-32 32.2-32c10 0 19.6 4.7 25.6 12.6zM272 192c0 11.7 3.1 22.6 8.6 32L256 224l-32 0 0 32 0 224 0 32 32 0 352 0 32 0 0-32 0-224 0-32-32 0-24.6 0c5.4-9.4 8.6-20.3 8.6-32c0-35.4-28.9-64-64.2-64c-19.9 0-38.8 9.2-51 25.1L432 211.4l-44.8-58.3c-12.2-15.8-31.1-25.1-51-25.1c-35.3 0-64.2 28.6-64.2 64zm-16 64l80 0 56 0 24 0 0 96-160 0 0-96zm0 224l0-96 160 0 0 96-160 0zm352 0l-160 0 0-96 160 0 0 96zm0-224l0 96-160 0 0-96 24 0 56 0 80 0zM472 224l-9.4 0 39.6-51.4c6.1-7.9 15.6-12.6 25.6-12.6c17.7 0 32.2 14.4 32.2 32c0 17.7-14.3 32-32 32l-56 0z"/></svg>

<svg xmlns="http://www.w3.org/2000/svg" viewBox="0 0 640 512"><!--! Font Awesome Pro 6.5.2 by @fontawesome - https://fontawesome.com License - https://fontawesome.com/license (Commercial License) Copyright 2024 Fonticons, Inc. --><path d="M192.9 29.8l5.8-14.9L168.8 3.3l-5.8 14.9L144.5 66.4 127 18.5l-5.5-15L91.5 14.4l5.5 15 15.9 43.8L64.6 42.5 51.1 33.9l-17.2 27 13.5 8.6L89.1 96H32 0v32V480v32H32 192V480H32V128H256v16.6c8.2-12.9 19.1-23.9 32-32.2V96H256 198.9l41.6-26.5 13.5-8.6-17.2-27-13.5 8.6L176.5 72.4l16.5-42.6zM361.8 172.6L401.4 224H392 336c-17.7 0-32-14.3-32-32c0-17.6 14.4-32 32.2-32c10 0 19.6 4.7 25.6 12.6zM272 192c0 11.7 3.1 22.6 8.6 32H256 224v32V480v32h32H608h32V480 256 224H608 583.4c5.4-9.4 8.6-20.3 8.6-32c0-35.4-28.9-64-64.2-64c-19.9 0-38.8 9.2-51 25.1L432 211.4l-44.8-58.3c-12.2-15.8-31.1-25.1-51-25.1c-35.3 0-64.2 28.6-64.2 64zm-16 64h80 56 24v96H256V256zm0 224V384H416v96H256zm352 0H448V384H608v96zm0-224v96H448V256h24 56 80zM472 224h-9.4l39.6-51.4c6.1-7.9 15.6-12.6 25.6-12.6c17.7 0 32.2 14.4 32.2 32c0 17.7-14.3 32-32 32H472z"/></svg>
